X:1
T:Title
%%score { ( 1 3 4 ) | ( 2 5 ) }
L:1/8
Q:1/4=119
M:6/8
K:C
V:1 treble nm="Grand Piano"
V:3 treble 
V:4 treble 
V:2 bass 
V:5 bass 
V:1
 [Ec]2 B .[Ed]3 | .[G,EG]3 .[G,D]3 | .[FB]3 .[F,A,F]3 | [FA]6 | B2 c d2 ^c | d6 | %6
w: R.~H.~Higgins * *||||||
 [Ec]2 [Fd] [Ge]2 [Ec] | [EG]6 | [Ec]2 B .[Ed]3 | .[G,EG]3 .[G,D]3 | .[FB]3 .[F,A,F]3 | %11
w: |||||
 [FA]6[K:bass] | [^Fd]6 | [Fd]6 | B3 c3 | d6 | e6 | d6 | [Fc]3 [FB]3 | [FB]6[K:bass] | B6 | d6 | %22
w: |||||||||||
 [Ec]3 [Ee]3 | [EG]6 | [CFA]2 [B,FG] [CFA]2 [CGB] | A3 z3 | G2 ^F [EG]2 [Ec] | [Ge]6 | d3 A3 | %29
w: |||||||
 B2 c e2 d | [Fd]6 | [Ec]6 |] %32
w: |||
V:2
 .[C,G,]3 [G,,G,]2[K:treble] c | C,2 E E,2 C | F,,2 A D,2 D | D,,2 [D,F,] .[D,F,]3 | %4
 [G,D]2 [G,E] [G,B,F]2 [G,_B,E] | [G,B,F]6 | [C,G,]2 [C,G,] [C,C]2 [C,G,] | [C,C]6 | %8
 .[C,G,]3 [G,,G,]2[K:treble] c | C,2 E E,2 C | F,,2 A D,2 D | D,,2 D, .D,3 | [D,C]3 z2 ^F | %13
 [D,C]3 z2[K:treble] F | [G,DF]3 [G,A,F]3 | [G,B,F]6 | [C,G,]3 [G,,G,]3 | [C,G,]3 [G,,G,]3 | %18
 [D,G,]3 [G,,G,]3 | [D,G,]3 z3 | [D,G,]3 [G,,G,]3 | [B,,G,]3 [G,,G,]3 | [C,G,]3 [G,,G,]3 | %23
 [C,G,]3 C,3 | F,2 F, F,2 F, | F,3 A,3 | [CE]2 [C_E] [C,C]2 [C,G,] | C3 z3 | [F,A,F]3 [F,DF]3 | %29
 [G,DF]2 [G,CE] [G,B,G]2 [G,F] | [G,,G,]6 | [C,G,]6 |] %32
V:3
 x6 | x6 | x6 | z2 A, .A,3 | x6 | x6 | x6 | x6 | x6 | x6 | x6 | z2[K:bass] [F,A,] .[F,A,]3 | %12
 z3 z2 A | z3 z2 A | x6 | x6 | E3 z2 B | E3 z2 A | x6 | z3[K:bass] [G,,G,]3 | F3 z2 c | F3 z2 B | %22
 x6 | z3 C3 | x6 | [Cc]3- [CFc]3 | x6 | z3 _B,3 | x6 | x6 | x6 | x6 |] %32
V:4
 x6 | x6 | x6 | x6 | x6 | x6 | x6 | x6 | x6 | x6 | x6 | x2[K:bass] x4 | z3 C3 | z3 C3 | x6 | x6 | %16
 z3 E3 | z3 E3 | x6 | x3[K:bass] x3 | z3 F3 | z3 F3 | x6 | x6 | x6 | x6 | x6 | x6 | x6 | x6 | x6 | %31
 x6 |] %32
V:5
 x5[K:treble] x | x6 | x6 | x6 | x6 | x6 | x6 | x6 | x5[K:treble] x | x6 | x6 | x6 | z3 D,3 | %13
 z3 D,3[K:treble] | x6 | x6 | x6 | x6 | x6 | x6 | x6 | x6 | x6 | x6 | x6 | x6 | x6 | C,6 | x6 | %29
 x6 | x6 | x6 |] %32

